ui/StatusQ/src/assets/img/icons/create-category.svg

<svg fill="none" height="16" viewBox="0 0 16 16" width="16" xmlns="http://www.w3.org/2000/svg"><g clip-rule="evenodd" fill="#4360df" fill-rule="evenodd"><path d="m8.00001 13.6667c3.12959 0 5.66669-2.537 5.66669-5.66666 0-3.12961-2.5371-5.66667-5.66669-5.66667-3.12961 0-5.66667 2.53706-5.66667 5.66667 0 3.12966 2.53706 5.66666 5.66667 5.66666zm0 1c3.68189 0 6.66669-2.9848 6.66669-6.66666 0-3.6819-2.9848-6.66667-6.66669-6.66667-3.6819 0-6.66667 2.98477-6.66667 6.66667 0 3.68186 2.98477 6.66666 6.66667 6.66666z"/><path d="m7.65987 5.08224c.0454-.27239-.13861-.53-.411-.5754-.27238-.0454-.53.13861-.57539.411l-.16173.97033c-.02678.16073-.16585.27854-.32879.27854h-.84962c-.27614 0-.5.22385-.5.5 0 .27614.22386.5.5.5h.57184c.20598 0 .36266.18495.3288.38813l-.16667 1c-.02679.16073-.16585.27853-.3288.27853h-.7385c-.27614 0-.5.22386-.5.5 0 .27615.22386.5.5.5h.46072c.20598 0 .36266.18493.3288.38813l-.11605.6963c-.0454.2724.13861.53.41099.5754.27239.0454.53-.1386.5754-.411l.16172-.9703c.02679-.16072.16585-.27853.3288-.27853h.97701c.20598 0 .36266.18493.3288.38813l-.11606.6963c-.04539.2724.13862.53.411.5754.27239.0454.53-.1386.5754-.411l.16172-.9703c.02679-.16072.16585-.27853.3288-.27853h.84964c.2761 0 .5-.22385.5-.5 0-.27614-.2239-.5-.5-.5h-.5719c-.20595 0-.36263-.18495-.32876-.38813l.16666-1c.02679-.16073.1659-.27853.3288-.27853h.7385c.2762 0 .5-.22386.5-.5 0-.27615-.2238-.5-.5-.5h-.4607c-.206 0-.3627-.18496-.3288-.38814l.116-.69633c.0454-.27239-.1386-.53-.41096-.5754-.27238-.0454-.53.13861-.5754.411l-.16172.97033c-.02679.16073-.16585.27854-.3288.27854h-.97701c-.20598 0-.36266-.18496-.3288-.38814zm.74531 3.75113c.16294 0 .30201-.1178.3288-.27853l.16666-1c.03387-.20318-.12282-.38813-.32879-.38813h-.97702c-.16294 0-.30201.1178-.32879.27853l-.16667 1c-.03386.20318.12282.38813.3288.38813z"/></g></svg>

<svg width="16" height="16" viewBox="0 0 16 16" fill="none" xmlns="http://www.w3.org/2000/svg">
<path fill-rule="evenodd" clip-rule="evenodd" d="M8.00001 13.6667C11.1296 13.6667 13.6667 11.1297 13.6667 8.00004C13.6667 4.87043 11.1296 2.33337 8.00001 2.33337C4.8704 2.33337 2.33334 4.87043 2.33334 8.00004C2.33334 11.1297 4.8704 13.6667 8.00001 13.6667ZM8.00001 14.6667C11.6819 14.6667 14.6667 11.6819 14.6667 8.00004C14.6667 4.31814 11.6819 1.33337 8.00001 1.33337C4.31811 1.33337 1.33334 4.31814 1.33334 8.00004C1.33334 11.6819 4.31811 14.6667 8.00001 14.6667Z" fill="#4360DF"/>
<path fill-rule="evenodd" clip-rule="evenodd" d="M7.65987 5.08224C7.70527 4.80985 7.52126 4.55224 7.24887 4.50684C6.97649 4.46144 6.71887 4.64545 6.67348 4.91784L6.51175 5.88817C6.48497 6.0489 6.3459 6.16671 6.18296 6.16671H5.33334C5.0572 6.16671 4.83334 6.39056 4.83334 6.66671C4.83334 6.94285 5.0572 7.16671 5.33334 7.16671H5.90518C6.11116 7.16671 6.26784 7.35166 6.23398 7.55484L6.06731 8.55484C6.04052 8.71557 5.90146 8.83337 5.73851 8.83337H5.00001C4.72387 8.83337 4.50001 9.05723 4.50001 9.33337C4.50001 9.60952 4.72387 9.83337 5.00001 9.83337H5.46073C5.66671 9.83337 5.82339 10.0183 5.78953 10.2215L5.67348 10.9178C5.62808 11.1902 5.81209 11.4478 6.08447 11.4932C6.35686 11.5386 6.61447 11.3546 6.65987 11.0822L6.82159 10.1119C6.84838 9.95118 6.98744 9.83337 7.15039 9.83337H8.1274C8.33338 9.83337 8.49006 10.0183 8.4562 10.2215L8.34014 10.9178C8.29475 11.1902 8.47876 11.4478 8.75114 11.4932C9.02353 11.5386 9.28114 11.3546 9.32654 11.0822L9.48826 10.1119C9.51505 9.95118 9.65411 9.83337 9.81706 9.83337H10.6667C10.9428 9.83337 11.1667 9.60952 11.1667 9.33337C11.1667 9.05723 10.9428 8.83337 10.6667 8.83337H10.0948C9.88885 8.83337 9.73217 8.64842 9.76604 8.44524L9.9327 7.44524C9.95949 7.28451 10.0986 7.16671 10.2615 7.16671H11C11.2762 7.16671 11.5 6.94285 11.5 6.66671C11.5 6.39056 11.2762 6.16671 11 6.16671H10.5393C10.3333 6.16671 10.1766 5.98175 10.2105 5.77857L10.3265 5.08224C10.3719 4.80985 10.1879 4.55224 9.91554 4.50684C9.64316 4.46144 9.38554 4.64545 9.34014 4.91784L9.17842 5.88817C9.15163 6.0489 9.01257 6.16671 8.84962 6.16671H7.87261C7.66663 6.16671 7.50995 5.98175 7.54381 5.77857L7.65987 5.08224ZM8.40518 8.83337C8.56812 8.83337 8.70719 8.71557 8.73398 8.55484L8.90064 7.55484C8.93451 7.35166 8.77782 7.16671 8.57185 7.16671H7.59483C7.43189 7.16671 7.29282 7.28451 7.26604 7.44524L7.09937 8.44524C7.06551 8.64842 7.22219 8.83337 7.42817 8.83337H8.40518Z" fill="#4360DF"/>
</svg>
